X: 983
T: Havuz Başının Gülleri
C: Muzaffer Sarısözen
O: Turkey
F: http://compmusic.upf.edu/node/140
N: segah--turku--curcuna--havuz_basinin--erzincan
N: makam= segah
N: form= turku
N: usul= curcuna = 10/8
M: 10/8
L: 1/16
K: C _1/4B _1/4e ^f 
Q: 1/4=192
%%MIDI tuningsystem comma53
z4 B2d4c4B6  | B4 B6c2 d2B6  | z4 B2d4c4B6  | \
w:  SAZ  |   |   | 
B4 B6c2 d2B6  | z4 B2d4d6 c4  | 
w:   |  Ha vuz  ba şı  | 
d4 e4 d2=f4e4d2  | d4 d6d6 c4  | d4 e4 d2=f4e4d2  | \
w:  nın  gül *  le ri    |  Ha vuz  ba şı  |  nın  gül *  le ri    | 
d4 d2e2 c2c4c2 d2B2  | 
w:  Şak  şak  *  *  ö ter   | 
B4 B^AB4c4B4z2  | B4 dcd4c4c2 d2B2  | \
w:  bül bül *  *  le ri    |  Şak  şak  *  *  ö ter   | 
B4 B2^A2 B2c4BA B4  | 
w:  bül bül *  *  le ri    | 
z4 f2g4f6 g4  | f4 g4 e2e4e2 =f2d2  | \
w:  O  yâ rin  du  |  du  dil *  le ri    | 
d4 d2e2 c2d6 c4  | d4 e4 d2=f4e4d2  | 
w:  O  yâ *  *  rin  du  |  du  dil *  le ri    | 
z4 c2.d4c4z2 c2{d}B2  | .B4 B^AB4c4BA B4  | \
w:  Ba lam  kaş la  |  rın  göz *  *  le rin    | 
z4 c2d4c4c2 d2B2  | 
w:  Se ni  sî nem  | 
B4 B^AB4c4BA B4  | z4 B2d4B6 d2B2  | \
w:  de  giz *  *  le rim    |  On  bir  ay dır   | 
B4 B^AB4c4BA B4  | 
w:  yol  göz *  *  le rim    | 
z4 B2d4c4B6  | B4 B6c2 d2B6  | z4 B2d4c4B6  | \
w:  SAZ  |   |   | 
B4 B6c2 d2B6  | z4 B2d4d6 c4  | 
w:   |  Ha vuz  ba şı  | 
d4 e4 d2=f4e4d2  | d4 d6d6 c4  | d4 e4 d2=f4e4d2  | \
w:  nın  gül *  le ri    |  Ha vuz  ba şı  |  nın  gül *  le ri    | 
d4 d2e2 c2c4c2 d2B2  | 
w:  Şak  şak  *  *  ö ter   | 
B4 B^AB4c4B4z2  | B4 dcd4c4c2 d2B2  | \
w:  bül bül *  *  le ri    |  Şak  şak  *  *  ö ter   | 
B4 B2^A2 B2c4BA B4  | 
w:  bül bül *  *  le ri    | 
z4 f2g4f6 g4  | f4 g4 e2e4e2 =f2d2  | \
w:  O  yâ rin  du  |  du  dil *  le ri    | 
d4 d2e2 c2d6 c4  | d4 e4 d2=f4e4d2  | 
w:  O  yâ *  *  rin  du  |  du  dil *  le ri    | 
z4 c2.d4c4z2 c2{d}B2  | .B4 B^AB4c4BA B4  | \
w:  Ba lam  kaş la  |  rın  göz *  *  le rin    | 
z4 c2d4c4c2 d2B2  | 
w:  Se ni  sî nem  | 
B4 B^AB4c4BA B4  | z4 B2d4B6 d2B2  | \
w:  de  giz *  *  le rim    |  On  bir  ay dır   | 
B4 B^AB4c4BA B4  | 
w:  yol  göz *  *  le rim    | 
|


